X: 36414
T: Seán's
R: mazurka
M: 3/4
K: Amajor
|:(3agf|e2 c3 e|f2 d3 f|(3efe c2 A2|E4 d2|
c4 cc|B2 G2 B2|(3ABA c2 f2|e4 (3agf|
e2 c3 e|f2 d3 f|(3efe c2 A2|E4 d2|
c4 cc|B2G2B2|(3ABA EA ce|a4:|
|:gf|(3efe c3 e|f2 d3 f|(3efe c2 e2|a4 gf|
(3efe c3 e|f2 d3 f|(3efe d2 c2|B4 cd|
(3efe c3 e|(3fgf d3 f|(3efe c2 A2|E4 d2|
c4 cc|B2 G2 B2|(3ABA EA ce|a4:|

